src/16/actions/cm_flatview.svg

<svg xmlns="http://www.w3.org/2000/svg" width="16" height="16" viewBox="0 0 16 16">
 <defs>
  <style id="current-color-scheme" type="text/css">
   .ColorScheme-Text { color:#565656; } .ColorScheme-Highlight { color:#5294e2; }
  </style>
 </defs>
 <path style="fill:currentColor" class="ColorScheme-Text" d="M 0 2.0097656 L 0 14.009766 L 10 14.009766 L 10 4.0097656 C 10 2.0097656 8 2.0097656 8 2.0097656 L 0 2.0097656 z M 10 2.0097656 C 10 2.0097656 11 2.0097656 11 4.0097656 L 11 14.009766 L 12 14.009766 L 12 4.0097656 C 12 2.0097656 10 2.0097656 10 2.0097656 z M 12 2.0097656 C 12 2.0097656 13 2.0097656 13 4.0097656 L 13 14.009766 L 14 14.009766 L 14 4.0097656 C 14 2.0097656 12 2.0097656 12 2.0097656 z"/>
</svg>

<svg xmlns="http://www.w3.org/2000/svg" width="16" height="16"><defs><style id="current-color-scheme" type="text/css"></style></defs><path d="M0 2.01v12h10v-10c0-2-2-2-2-2H0zm10 0s1 0 1 2v10h1v-10c0-2-2-2-2-2zm2 0s1 0 1 2v10h1v-10c0-2-2-2-2-2z" fill="currentColor" color="#565656"/></svg>
